!! 00000] TT[WS
!!!OTL: Chuancaolin diao
!!!ARE: Asia, China, Shanxi Linxian
!! Ethnic Group: Han
!! WI, 291
!!!SCT: J0352
!!!YEM: Copyright 1995, estate of Helmut Schaffrath.
**kern
*ICvox
*Ivox
*M2/4
*k[]
*C:
{8.dd
16dd
8ee
8cc
=1
8.dd
16ee
8dd
8cc
=2
8a
8dd
8cc
8dd
=3
8f
8g
4a}
=4
{8.dd
16dd
8ee
8cc
=5
8.dd
16ee
8dd
8cc
=6
8a
8dd
8cc
8dd
=7
8f
8g
4a}
=8
{8dd
8cc
4dd
=9
8.dd
16ee
8dd
8cc
=10
4dd
8.g
16a
=11
4cc
8a
8g
=12
8f
8a
8g
16f
16e
=13
2d}
==
!!!AGN: Xiaodiao, Chuanzaolindiao. Xinminge, Qingge, Xuanchuan
!! Neue Text. Politische Liede
!!!ONB: ESAC (Essen Associative Code) Database: CHINA
!!!AMT: simple duple
!!!AIN: vox
!!!EED: Helmut Schaffrath
!!!EEV: 1.0
*-
